src/assets/svg/deur-dicht.svg

<svg height="90" viewBox="0 0 90 90" width="90" xmlns="http://www.w3.org/2000/svg"><g fill="none" fill-rule="evenodd"><path d="m30 22h30c1.1 0 2 .9 2 2v42c0 1.1-.9 2-2 2h-10v-32.81c0-.73-.4-1.41-1.04-1.76l-19.96-10.88-.27-.09c.35-.29.79-.46 1.27-.46" fill="#76d03b"/><path d="m62 56.68v10.32c0 .75-.81 1.24-1.48.87l-30.52.13c-1.51-.82-2-1.07-2-2.79v-41.21c0-.62.28-1.17.73-1.54l.27.09 31.96-.31c.64.35 1.04 1.03 1.04 1.76z" fill="#efebe1"/><g stroke="#232e38" stroke-linecap="round" stroke-linejoin="round" stroke-width="2"><path d="m50 68h10c1.105 0 2-.895 2-2v-42c0-1.105-.895-2-2-2h-30c-1.105 0-2 .895-2 2v41.213c0 1.718.492 1.964 2 2.787z"/><path d="m29.0025 22.5468 31.955-.303c.643.351 1.043 1.024 1.043 1.756"/><path d="m56.061 43v4"/></g></g></svg>

<?xml version="1.0" encoding="UTF-8" standalone="no"?>
<svg width="90px" height="90px" viewBox="0 0 90 90" version="1.1" xmlns="http://www.w3.org/2000/svg" xmlns:xlink="http://www.w3.org/1999/xlink" xmlns:sketch="http://www.bohemiancoding.com/sketch/ns">
    <!-- Generator: Sketch 3.5.1 (25234) - http://www.bohemiancoding.com/sketch -->
    <title>deur-dicht</title>
    <desc>Created with Sketch.</desc>
    <defs></defs>
    <g id="Page-1" stroke="none" stroke-width="1" fill="none" fill-rule="evenodd" sketch:type="MSPage">
        <g id="deur-dicht" sketch:type="MSArtboardGroup">
            <path d="M30,22 L60,22 C61.1,22 62,22.9 62,24 L62,66 C62,67.1 61.1,68 60,68 L50,68 L50,35.19 C50,34.46 49.6,33.78 48.96,33.43 L29,22.55 L28.73,22.46 C29.08,22.17 29.52,22 30,22" id="Fill-4" fill="#76D03B" sketch:type="MSShapeGroup"></path>
            <path d="M62,56.68 L62,67 C62,67.75 61.19,68.24 60.52,67.87 L30,68 C28.49,67.18 28,66.93 28,65.21 L28,24 C28,23.38 28.28,22.83 28.73,22.46 L29,22.55 L60.96,22.24 C61.6,22.59 62,23.27 62,24 L62,56.68 Z" id="Fill-6" fill="#EFEBE1" sketch:type="MSShapeGroup"></path>
            <path d="M50,68 L60,68 C61.105,68 62,67.105 62,66 L62,24 C62,22.895 61.105,22 60,22 L30,22 C28.895,22 28,22.895 28,24 L28,65.213 C28,66.931 28.492,67.177 30,68 L50,68 L50,68 Z" id="Stroke-8" stroke="#232E38" stroke-width="2" stroke-linecap="round" stroke-linejoin="round" sketch:type="MSShapeGroup"></path>
            <path d="M29.0025,22.5468 L60.9575,22.2438 C61.6005,22.5948 62.0005,23.2678 62.0005,23.9998" id="Stroke-10" stroke="#232E38" stroke-width="2" stroke-linecap="round" stroke-linejoin="round" sketch:type="MSShapeGroup"></path>
            <path d="M56.061,43 L56.061,47" id="Stroke-12" stroke="#232E38" stroke-width="2" stroke-linecap="round" stroke-linejoin="round" sketch:type="MSShapeGroup"></path>
        </g>
    </g>
</svg>
